pointercrate-demonlist-pages/static/images/flags/ca/nu.svg

<?xml version="1.0" encoding="UTF-8"?>
<svg width="881.17" height="496" version="1.0" xmlns="http://www.w3.org/2000/svg">
 <rect width="444.91" height="496" fill="#fdd500"/>
 <rect x="444.91" width="436.26" height="496" fill="#fff"/>
 <polygon transform="matrix(1.0095 .0094096 -.0094096 1.0095 -8.2722 -8.6541)" points="811.92 66.307 798.44 95.254 821.48 115.13 789.79 111.25 778.01 139.31 771.9 107.97 741.57 105.44 769.49 89.94 762.53 60.316 785.9 82.082" fill="#0164bb"/>
 <g fill="#d51516" fill-rule="evenodd" stroke="#000" stroke-linecap="round" stroke-linejoin="round" stroke-width="7.0866">
  <path d="m444.15 3.5562c7.583 1.6947 39.835 38.296 42.586 46.873 2.216 8.782-8.631 85.179-18.748 110.33-18.614 4.04-48.469 1.525-65.619-3.606-3.347-7.067-10.487-99.116-7.211-112.49 3.404-6.5371 41.986-40 48.992-41.104z"/>
  <path d="m252.73 155.44c79.704 9.239 240.1 8.507 350.43 11.378 10.41 1.299-7.654 28.152-12.126 39.15-4.422 10.875-5.278 35.231-30.786 34.585-93.728-2.793-178.6-5.337-269.78-8.143-33.091-1.024-58.694-79.287-37.735-76.97z"/>
  <path d="m375.42 236.39c16.113 1.861 80.121 0.725 104.03 3.978 16.348 2.472 16.151 58.213 8.598 66.9-8.407 9.601-48.774 3.258-71.141 9.908-21.292 6.038-23.021 12.665-62.876 8.119 9.871-52.623 3.697-91.047 21.39-88.905z"/>
  <path d="m341.24 332.64c6.143-8.157 17.6-5.816 31.277-4.86 18.685 0.879 59.591-14.726 86.813-14.449 16.514 0.595 29.235 7.246 28.902 22.189-0.602 11.819 0.59 40.264-6.806 56.304-4.39 10.445-68.381 8.456-97.729-2.085-8.564-3.032-40.427 2.859-44.06-2.696-4.238-5.829-6.916-43.09 1.603-54.403z"/>
  <path d="m345.83 393.67c2.534-4.693 14.399-6.297 21.927-5.769 19.874 1.395 57.453 18.001 99.577 10.256 25.403-4.592 52.796 50.01 43.819 64.288-9.196 15.126-19.815 22.071-30.882 30.32-86.239 0.779-148.09 8.212-147.02-24.86 0.555-16.955 2.263-55.927 12.575-74.235z"/>
 </g>
</svg>

<?xml version="1.0" encoding="UTF-8"?>
<svg version="1.0" xmlns="http://www.w3.org/2000/svg" width="881.172547" height="496">
	<rect width="444.912842" height="496" fill="#fdd500"/>
	<rect x="444.912842" width="436.259705" height="496" fill="#fff"/>
	<polygon points="811.921,66.307 798.441,95.2544 821.485,115.129 789.789,111.254 778.008,139.312 771.899,107.97 741.574,105.436 769.494,89.9401 762.533,60.3162 785.898,82.0817 811.921,66.307" transform="matrix(1.009479,9.409633e-3,-9.409633e-3,1.009479,-8.272191,-8.654114)" fill="#0164bb"/>
	<g fill="#d51516" fill-rule="evenodd" stroke="#000" stroke-width="7.08661" stroke-linejoin="round" stroke-linecap="round">
		<path d="M 444.15 3.55618 C 451.733 5.25089 483.985 41.8523 486.736 50.4291 C 488.952 59.2111 478.105 135.608 467.988 160.756 C 449.374 164.796 419.519 162.281 402.369 157.15 C 399.022 150.083 391.882 58.0336 395.158 44.6604 C 398.562 38.1233 437.144 4.66057 444.15 3.55618 z"/>
		<path d="M 252.727 155.441 C 332.431 164.68 492.823 163.948 603.153 166.819 C 613.563 168.118 595.499 194.971 591.027 205.969 C 586.605 216.844 585.749 241.2 560.241 240.554 C 466.513 237.761 381.636 235.217 290.462 232.411 C 257.371 231.387 231.768 153.124 252.727 155.441 z"/>
		<path d="M 375.418 236.392 C 391.531 238.253 455.539 237.117 479.447 240.37 C 495.795 242.842 495.598 298.583 488.045 307.27 C 479.638 316.871 439.271 310.528 416.904 317.178 C 395.612 323.216 393.883 329.843 354.028 325.297 C 363.899 272.674 357.725 234.25 375.418 236.392 z"/>
		<path d="M 341.237 332.642 C 347.38 324.485 358.837 326.826 372.514 327.782 C 391.199 328.661 432.105 313.056 459.327 313.333 C 475.841 313.928 488.562 320.579 488.229 335.522 C 487.627 347.341 488.819 375.786 481.423 391.826 C 477.033 402.271 413.042 400.282 383.694 389.741 C 375.13 386.709 343.267 392.6 339.634 387.045 C 335.396 381.216 332.718 343.955 341.237 332.642 z"/>
		<path d="M 345.829 393.668 C 348.363 388.975 360.228 387.371 367.756 387.899 C 387.63 389.294 425.209 405.9 467.333 398.155 C 492.736 393.563 520.129 448.165 511.152 462.443 C 501.956 477.569 491.337 484.514 480.27 492.763 C 394.031 493.542 332.184 500.975 333.254 467.903 C 333.809 450.948 335.517 411.976 345.829 393.668 z"/>
	</g>
</svg>
